!!!!SEGMENT: Mou2011-Puer_natus_est.krn
!!!id: Mou2011
!!!AGN: Motet
!!!SCT: Sherr (1989)
!!!voices: 4
!!!COM: Jean Mouton
!!!OTL: Puer natus est
**kern	**kern	**kern	**kern
*part4	*part3	*part2	*part1
*staff4	*staff3	*staff2	*staff1
*I"Bassus	*I"Tenor	*I"Altus	*I"Superius
*I'B	*I'T	*I'A	*I'S
*clefF4	*clefGv2	*clefGv2	*clefG2
*k[b-]	*k[b-]	*k[b-]	*k[b-]
*F:	*F:	*F:	*F:
*M2/1	*M2/1	*M2/1	*M2/1
*met(O2)	*met(O2)	*met(O2)	*met(O2)
!!section: Prima pars: Puer natus est
!!!OMD: Prima pars: Puer natus est
=1	=1	=1	=1
0r	0r	0r	1.f
.	.	.	2g
=2	=2	=2	=2
0r	[0F	0r	2a
.	.	.	2b-y
.	.	.	[1cc
=3	=3	=3	=3
0r	0F]	1.c	2cc]
.	.	.	2b-y
.	.	.	1a
.	.	2d	.
=4	=4	=4	=4
[0C	0c	2e	2.g
.	.	2f	.
.	.	.	4f
.	.	[1g	4e
.	.	.	4d
.	.	.	[2e
=5	=5	=5	=5
0C]	0c	2g]	2e]
.	.	2f	4d
.	.	.	4c
.	.	1e	2.g
.	.	.	4a
=6	=6	=6	=6
0G	0r	0d	2.b-y
.	.	.	4a
.	.	.	4b-y
.	.	.	4cc
.	.	.	[2dd
=7	=7	=7	=7
0G	0d	1.g	4dd]
.	.	.	4cc
.	.	.	4b-y
.	.	.	4a
.	.	.	1b-y
.	.	2f	.
=8	=8	=8	=8
0r	1c	2.e	1.g
.	.	8dL	.
.	.	8cJ	.
.	1B-y	1d	.
.	.	.	2f
=9	=9	=9	=9
0A	1.c	1r	2e
.	.	.	4d
.	.	.	4c
.	.	1c	2e
.	4B-y	.	2f
.	4A	.	.
=10	=10	=10	=10
1G	1B-y	2d	1g
.	.	2e	.
1F	[1c	[1f	[1a
=11	=11	=11	=11
0G	2c]	2f]	2a]
.	4B-y	4e	4g
.	4A	4d	4f
.	1B-y	1e	1g
=12	=12	=12	=12
0F	[0c	1f	1.a
.	.	1r	.
.	.	.	2g
=13	=13	=13	=13
1r	0c]	1F	2.a
.	.	.	8gL
.	.	.	8fJ
1C	.	[1c	1e
=14	=14	=14	=14
1.F	0r	2c]	0r
.	.	2c	.
.	.	2c	.
2F	.	4d	.
.	.	4c	.
=15	=15	=15	=15
1F	0r	4d	0r
.	.	4e	.
.	.	2f	.
1G	.	2e	.
.	.	[2d	.
=16	=16	=16	=16
1F	0r	4d]	1r
.	.	4c	.
.	.	4B-y	.
.	.	4A	.
2E	.	2G	1c
[2F	.	[2c	.
=17	=17	=17	=17
4F]	1r	2c]	1.f
4E	.	.	.
4D	.	4B-y	.
4C	.	4A	.
1D	1F	1B-y	.
.	.	.	2f
=18	=18	=18	=18
1C	1.c	0r	2g
.	.	.	4a
.	.	.	4g
1r	.	.	4a
.	.	.	4b-y
.	2c	.	[2cc
=19	=19	=19	=19
0r	1c	0r	4cc]
.	.	.	4b-y
.	.	.	1a
.	1d	.	.
.	.	.	4g
.	.	.	4f
=20	=20	=20	=20
0r	1c	0r	2e
.	.	.	1a
.	2A	.	.
.	2B-y	.	2g
=21	=21	=21	=21
1r	2A	1F	1f
.	2F	.	.
1C	1G	[1c	1e
=22	=22	=22	=22
1.F	1F	2c]	0r
.	.	2c	.
.	1r	2c	.
2F	.	4d	.
.	.	4c	.
=23	=23	=23	=23
1F	0r	4d	0r
.	.	4e	.
.	.	2f	.
1G	.	2e	.
.	.	[2d	.
=24	=24	=24	=24
1F	0r	4d]	1r
.	.	4c	.
.	.	4B-y	.
.	.	4A	.
2E	.	2G	1c
[2F	.	[2A	.
=25	=25	=25	=25
4F]	1r	4A]	1.f
4E	.	4G	.
4D	.	2B-y	.
4C	.	.	.
1D	1F	2A	.
.	.	[2F	2f
=26	=26	=26	=26
1C	1.c	2F]	2g
.	.	2E	4a
.	.	.	4g
1r	.	2.F	4a
.	.	.	4b-y
.	2c	.	[2cc
.	.	4G	.
=27	=27	=27	=27
2r	1c	1A	4cc]
.	.	.	4b-y
1F	.	.	1a
.	1d	1r	.
2G	.	.	4g
.	.	.	4f
=28	=28	=28	=28
2.A	1c	2r	2e
.	.	1F	1a
4G	.	.	.
2F	2A	.	.
2E	2B-y	2G	[2g
=29	=29	=29	=29
2F	2A	2A	4g]
.	.	.	4f
2D	2F	2B-y	1f
1C	1G	1c	.
.	.	.	2e
=30	=30	=30	=30
[0FF	[0F	[0A	0f
=31	=31	=31	=31
0FF]	0F]	0A]	1r
.	.	.	[1cc
=32	=32	=32	=32
0r	0r	1.f	2cc]
.	.	.	2cc
.	.	.	1cc
.	.	2e	.
=33	=33	=33	=33
0r	0r	2d	2.f
.	.	2c	.
.	.	.	4g
.	.	1f	2.a
.	.	.	4b-y
=34	=34	=34	=34
0r	0r	2e	2cc
.	.	4d	2b-y
.	.	4c	.
.	.	2f	1a
.	.	2f	.
=35	=35	=35	=35
0r	1r	0e	0g
.	[1c	.	.
=36	=36	=36	=36
1.F	2c]	0r	0r
.	2c	.	.
.	1c	.	.
2E	.	.	.
=37	=37	=37	=37
2D	2F	1r	0r
2C	2G	.	.
1F	2.A	[1c	.
.	4B-y	.	.
=38	=38	=38	=38
2E	2c	2c]	0r
2D	2B-y	2d	.
1F	1A	2c	.
.	.	4B-y	.
.	.	4A	.
=39	=39	=39	=39
1E	1G	2B-y	1r
.	.	2c	.
1r	1r	1F	[1cc
=40	=40	=40	=40
0r	0r	0f	2cc]
.	.	.	2dd
.	.	.	2cc
.	.	.	4b-y
.	.	.	4a
=41	=41	=41	=41
0r	0r	1e	2b-y
.	.	.	2cc
.	.	1d	2.f
.	.	.	4g
=42	=42	=42	=42
0r	0r	1d	2a
.	.	.	2b-y
.	.	2c	1cc
.	.	2e	.
=43	=43	=43	=43
0r	0r	2f	2a
.	.	2.g	2.b-y
.	.	4f	4a
.	.	4e	4g
.	.	4d	4f
=44	=44	=44	=44
1r	1.c	1e	1g
[1F	.	[1A	1f
.	2d	.	.
=45	=45	=45	=45
1F]	2.c	2A]	0r
.	.	4G	.
.	8B-yL	4F	.
.	8AJ	.	.
1E	2B-y	1G	.
.	2c	.	.
=46	=46	=46	=46
1D	2.F	1A	0r
.	4G	.	.
1D	2.A	2.F	.
.	4B-y	4G	.
=47	=47	=47	=47
1C	2.c	4A	0r
.	.	4G	.
.	.	4A	.
.	4B-y	4B-y	.
1r	4A	[1c	.
.	4G	.	.
.	[2A	.	.
=48	=48	=48	=48
2.FF	2A]	1c]	0r
.	4G	.	.
4GG	4F	.	.
2AA	2E	1r	.
2BB-y	[2G	.	.
=49	=49	=49	=49
2C	4G]	0r	1r
.	4F	.	.
2AA	1F	.	.
1GG	.	.	[1b-y
.	2E	.	.
=50	=50	=50	=50
1FF	1F	1r	2b-]
.	.	.	2a
1r	1r	1c	2g
.	.	.	4f
.	.	.	4e
=51	=51	=51	=51
0r	0r	2d	2f
.	.	2e	2g
.	.	[1f	1a
=52	=52	=52	=52
0r	1.B-y	2f]	2d
.	.	2e	2e
.	.	1d	1f
.	2A	.	.
=53	=53	=53	=53
1C	2G	1c	1e
.	4F	.	.
.	4E	.	.
2D	2F	2r	2a
2E	2G	[2c	2g
=54	=54	=54	=54
1.F	2.A	4c]	2.cc
.	.	4B-y	.
.	.	4A	.
.	4B-y	4G	4b-y
.	1c	2F	2a
2E	.	2G	[2g
=55	=55	=55	=55
1D	1F	2A	2g]
.	.	2B-y	1f
1C	1G	1c	.
.	.	.	2e
=56	=56	=56	=56
1FF	1F	0A	0f
1r	1r	.	.
=57	=57	=57	=57
2.F	2.A	0r	0r
4G	4B-y	.	.
2F	2c	.	.
2E	2c	.	.
=58	=58	=58	=58
2F	2A	0r	0r
2G	2B-y	.	.
1A	1A	.	.
=59	=59	=59	=59
0r	0r	2.f	2.a
.	.	4g	4b-y
.	.	2f	2cc
.	.	2e	2cc
=60	=60	=60	=60
1r	1r	2f	2a
.	.	2g	2b-y
2r	2r	1a	1a
2F	2A	.	.
=61	=61	=61	=61
2.F	2.A	0r	0r
4G	4B-y	.	.
2F	2c	.	.
2E	2c	.	.
=62	=62	=62	=62
2F	2A	0r	0r
2G	2B-y	.	.
2.A	2A	.	.
.	4c	.	.
4G	4B-y	.	.
=63	=63	=63	=63
4F	4A	0r	0r
4E	4G	.	.
1F	1A	.	.
4E	4G	.	.
4D	4F	.	.
=64	=64	=64	=64
2C	2c	0r	0r
2.G	2B-y	.	.
.	2c	.	.
4F	.	.	.
[2F	2A	.	.
=65	=65	=65	=65
2F]	1G	1r	1r
2E	.	.	.
1F	1F	2r	2r
.	.	2f	2a
=66	=66	=66	=66
0r	0r	2.f	2.a
.	.	4g	4b-y
.	.	2f	2cc
.	.	2e	2cc
=67	=67	=67	=67
0r	0r	2f	2a
.	.	2g	2b-y
.	.	2.a	2a
.	.	.	4cc
.	.	4g	4b-y
=68	=68	=68	=68
0r	0r	4f	4a
.	.	4e	4g
.	.	1f	1a
.	.	4e	4g
.	.	4d	4f
=69	=69	=69	=69
0r	2r	2c	2cc
.	2G	2.g	2b-y
.	2.A	.	2cc
.	.	4f	.
.	.	[2f	2a
.	4B-y	.	.
=70	=70	=70	=70
2r	2c	2f]	1g
2C	2c	2e	.
2.D	2A	[1f	1f
.	2B-y	.	.
4E	.	.	.
=71	=71	=71	=71
2F	1A	1f]	2r
2F	.	.	2c
2D	2r	1r	2f
2E	2G	.	2e
=72	=72	=72	=72
1D	1A	2r	2f
.	.	2d	2f
1G	1B-y	2.d	2g
.	.	.	2b-y
.	.	4e	.
=73	=73	=73	=73
1.F	2.c	2f	2.a
.	.	2f	.
.	4B-y	.	4g
.	2A	2d	2f
2E	2B-y	2e	[2g
=74	=74	=74	=74
2F	2A	2c	4g]
.	.	.	4f
2D	2F	2B-y	1f
1C	1G	2c	.
.	.	2c	2e
=75	=75	=75	=75
0FF	0F	1A	1f
.	.	2r	1r
.	.	[2f	.
=76	=76	=76	=76
0r	0r	2f]	1cc
.	.	2e	.
.	.	2d	2b-y
.	.	[2c	2a
=77	=77	=77	=77
0r	1r	4c]	1.g
.	.	4d	.
.	.	4e	.
.	.	4f	.
.	1c	2e	.
.	.	4d	4f
.	.	4c	4e
=78	=78	=78	=78
0r	2B-y	2d	2f
.	2A	1c	2c
.	1G	.	1d
.	.	2Bni	.
=79	=79	=79	=79
1F	1A	1c	1c
2E	2G	2c	1r
2D	2F	2B-y	.
=80	=80	=80	=80
1.C	1.E	2.A	1r
.	.	8GL	.
.	.	8FJ	.
.	.	2A	1cc
2AA	4D	[2G	.
.	4C	.	.
=81	=81	=81	=81
2BB-y	2D	2G]	2b-y
2FF	1C	1F	2a
1GG	.	.	1g
.	2BB-y	2E	.
=82	=82	=82	=82
1FF	2.C	1F	1a
.	4D	.	.
2C	2E	1r	2g
2D	2F	.	2f
=83	=83	=83	=83
2.C	2G	2r	2.e
.	2A	2.c	.
4D	.	.	4f
2E	2G	.	2g
.	.	4B-y	.
[2F	[2c	4A	[2a
.	.	4G	.
=84	=84	=84	=84
4F]	2c]	2F	4a]
4E	.	.	4g
2F	2A	2.c	1f
1C	1G	.	.
.	.	4B-y	.
.	.	2G	2e
=85	=85	=85	=85
[0FFl	[0Fl	2.A	[0fl
.	.	4B-y	.
.	.	1c	.
=	=	=	=
00FF]	00F]	00c	00f]
=||	=||	=||	=||
*M2/1	*M2/1	*M2/1	*M2/1
*met(C|)	*met(C|)	*met(C|)	*met(C|)
!!section: Secunda pars: Angelus ad pastores ait
!!!OMD: Secunda pars: Angelus ad pastores ait
0r	1F	0r	0r
.	1F	.	.
=86	=86	=86	=86
0r	1.c	0r	0r
.	2c	.	.
=87	=87	=87	=87
1C	1c	0r	0r
1C	1c	.	.
=88	=88	=88	=88
1.G	1B-y	0r	0r
.	2G	.	.
2G	[2B-y	.	.
=89	=89	=89	=89
1G	4B-]	0r	0r
.	4c	.	.
.	1d	.	.
1G	.	.	.
.	4c	.	.
.	4B-y	.	.
=90	=90	=90	=90
1F	2.A	0r	0r
.	4B-y	.	.
2E	2c	.	.
2D	[2d	.	.
=91	=91	=91	=91
2.G	4d]	0r	0r
.	4c	.	.
.	4B-y	.	.
4F	4A	.	.
4E	2G	.	.
4D	.	.	.
[2F	[2c	.	.
=92	=92	=92	=92
4F]	2c]	0r	1f
4E	.	.	.
4D	4B-y	.	.
4C	4A	.	.
1D	1B-y	.	1f
=93	=93	=93	=93
1C	2r	0r	1.cc
.	2c	.	.
1r	2A	.	.
.	[2c	.	2cc
=94	=94	=94	=94
0r	4c]	1c	1cc
.	4B-y	.	.
.	4A	.	.
.	4G	.	.
.	1A	1c	1cc
=95	=95	=95	=95
0r	1G	1.g	1b-y
.	1r	.	2g
.	.	2g	[2b-y
=96	=96	=96	=96
0r	0r	1g	4b-]
.	.	.	4cc
.	.	.	1dd
.	.	1g	.
.	.	.	4cc
.	.	.	4b-y
=97	=97	=97	=97
0r	0r	1f	2.a
.	.	.	4b-y
.	.	2e	2cc
.	.	2d	[2dd
=98	=98	=98	=98
1r	0r	1.g	4dd]
.	.	.	4cc
.	.	.	4b-y
.	.	.	4a
1G	.	.	4g
.	.	.	4a
.	.	4f	4b-y
.	.	4e	4cc
=99	=99	=99	=99
2G	0r	4d	2b-y
.	.	4c	.
2E	.	2e	1cc
2F	.	1d	.
2G	.	.	2bni
=100	=100	=100	=100
1.A	1r	1c	2cc
.	.	.	2.c
.	1c	1r	.
.	.	.	4d
4G	.	.	4e
4F	.	.	4f
=101	=101	=101	=101
2E	2c	0r	2g
2F	2A	.	2cc
2G	2B-y	.	2b-y
2A	2c	.	[2a
=102	=102	=102	=102
2.B-y	1d	1r	2a]
.	.	.	2g
4A	.	.	.
4F	1f	1c	1a
4G	.	.	.
[2A	.	.	.
=103	=103	=103	=103
2A]	2e	2c	0r
2F	1d	2A	.
2G	.	2B-y	.
2A	[2c	2c	.
=104	=104	=104	=104
1G	2c]	1d	0r
.	2B-y	.	.
2F	1c	1f	.
[2A	.	.	.
=105	=105	=105	=105
4A]	0r	2e	0r
4G	.	.	.
4F	.	2.d	.
4E	.	.	.
2F	.	.	.
.	.	4c	.
2E	.	[2c	.
=106	=106	=106	=106
1D	0r	2c]	1r
.	.	2Bni	.
1C	.	1c	[1cc
=107	=107	=107	=107
1F	1A	1r	2cc]
.	.	.	2b-y
2F	2A	1c	2a
2F	2A	.	4g
.	.	.	4f
=108	=108	=108	=108
1A	1A	2c	2e
.	.	2c	2f
1G	1B-y	2d	1g
.	.	2e	.
=109	=109	=109	=109
[0F	[0c	0f	1a
.	.	.	2r
.	.	.	2a
=110	=110	=110	=110
0F]	0c_	2r	2cc
.	.	2c	2cc
.	.	2f	1a
.	.	2f	.
=111	=111	=111	=111
2r	0c]	1e	2g
2C	.	.	2.cc
2F	.	2c	.
.	.	.	4b-y
2F	.	[2f	[2a
=112	=112	=112	=112
1D	2r	2f]	2a]
.	2A	4e	4g
.	.	4d	4f
2C	2c	2e	2g
[2F	2c	2f	[2a
=113	=113	=113	=113
2F]	1A	2c	2a]
4E	.	1d	4g
4D	.	.	4f
1G	2G	.	2.b-y
.	[2B-y	[2e-i	.
.	.	.	4a
=114	=114	=114	=114
2E-X	2B-]	4e-]	2g
.	.	4d	.
2F	2A	4c	1f
.	.	4B-y	.
1C	1G	1c	.
.	.	.	2e
=115	=115	=115	=115
0F	[0F	[0A	0f
=116	=116	=116	=116
1r	0F]	0A]	0r
[1c	.	.	.
=117	=117	=117	=117
2c]	1.c	0r	0r
2B-y	.	.	.
2A	.	.	.
2G	2B-y	.	.
=118	=118	=118	=118
1.F	2A	0r	0r
.	2G	.	.
.	[1F	.	.
2E	.	.	.
=119	=119	=119	=119
2D	2F]	0r	0r
2C	2E	.	.
2F	2D	.	.
2G	2C	.	.
=120	=120	=120	=120
2.A	2.F	0r	0r
4G	4G	.	.
4F	2A	.	.
4E	.	.	.
[2D	[2B-y	.	.
=121	=121	=121	=121
4D]	4B-]	0r	0r
4C	4A	.	.
2AA	1A	.	.
1BB-y	.	.	.
.	2G	.	.
=122	=122	=122	=122
1AA	1A	1r	1.cc
1r	1r	[1f	.
.	.	.	2b-y
=123	=123	=123	=123
0r	0r	2f]	2a
.	.	2e	2g
.	.	2.d	[1f
.	.	4c	.
=124	=124	=124	=124
0r	0r	2B-y	2f]
.	.	2c	2e
.	.	2d	2d
.	.	2e	2c
=125	=125	=125	=125
0r	0r	2d	2.f
.	.	2.f	.
.	.	.	4g
.	.	.	2a
.	.	4e	.
.	.	4d	[2b-y
.	.	4c	.
=126	=126	=126	=126
0r	0r	2d	4b-]
.	.	.	4a
.	.	2c	1a
.	.	1B-y	.
.	.	.	2g
=127	=127	=127	=127
1r	0r	0A	1a
[1c	.	.	1r
=128	=128	=128	=128
2c]	1.c	0r	0r
2B-y	.	.	.
2A	.	.	.
2G	2B-y	.	.
=129	=129	=129	=129
1.F	2A	0r	0r
.	2G	.	.
.	[1F	.	.
2E	.	.	.
=130	=130	=130	=130
2D	2F]	0r	0r
2C	2E	.	.
2F	2D	.	.
2G	2C	.	.
=131	=131	=131	=131
2.A	2.F	0r	0r
4G	4G	.	.
4F	2A	.	.
4E	.	.	.
[2D	[2B-y	.	.
=132	=132	=132	=132
4D]	4B-]	0r	0r
4C	4A	.	.
2AA	1A	.	.
1BB-y	.	.	.
.	2G	.	.
=133	=133	=133	=133
1AA	1A	1r	1.cc
1r	1r	[1f	.
.	.	.	2b-y
=134	=134	=134	=134
0r	0r	2f]	2a
.	.	2e	2g
.	.	2.d	[1f
.	.	4c	.
=135	=135	=135	=135
0r	0r	2B-y	2f]
.	.	2c	2e
.	.	2d	2d
.	.	2e	2c
=136	=136	=136	=136
0r	0r	2d	2.f
.	.	2.f	.
.	.	.	4g
.	.	.	2a
.	.	4e	.
.	.	4d	[2b-y
.	.	4c	.
=137	=137	=137	=137
0r	0r	2d	4b-]
.	.	.	4a
.	.	2c	1a
.	.	1B-y	.
.	.	.	2g
=138	=138	=138	=138
1r	2F	1A	1a
.	2F	.	.
2C	2G	1r	1r
2C	2A	.	.
=139	=139	=139	=139
2D	2.B-y	1r	0r
2E	.	.	.
.	4B-y	.	.
[1F	2A	2c	.
.	2A	2c	.
=140	=140	=140	=140
2F]	2F	2d	0r
2E	2G	2e	.
2.D	1A	[1f	.
4E	.	.	.
=141	=141	=141	=141
2F	2r	2f]	0r
1G	1B-y	2e	.
.	.	1d	.
2F	2A	.	.
=142	=142	=142	=142
2E	2G	2c	0r
2.F	2.A	2.d	.
4E	4G	4c	.
2C	[2G	[2c	.
=143	=143	=143	=143
1D	2G]	2c]	0r
.	2F	2Bni	.
1C	1G	1c	.
=144	=144	=144	=144
0r	0r	2.c	2.g
.	.	4d	4f
.	.	2e	2g
.	.	2c	2a
=145	=145	=145	=145
1r	1r	2d	2f
.	.	2e	2g
2.F	2.c	[1f	[1a
4G	4B-y	.	.
=146	=146	=146	=146
2A	2c	2f]	1a]
2F	2d	4e	.
.	.	4d	.
2G	2B-y	2e	1r
2A	2c	[2f	.
=147	=147	=147	=147
1B-y	1d	2f]	2.f
.	.	4e	.
.	.	4d	4g
2A	1r	2c	2a
[2B-y	.	[2d	2f
=148	=148	=148	=148
2B-]	1r	4d]	2g
.	.	4e	.
2A	.	1f	2a
1G	1B-y	.	1b-y
.	.	2e	.
=149	=149	=149	=149
1.F	2.c	2.f	1a
.	4B-y	4e	.
.	2A	2d	2f
2E	2G	2c	[2g
=150	=150	=150	=150
2D	2A	1d	4g]
.	.	.	4f
2BB-y	2B-y	.	1f
1C	1G	1c	.
.	.	.	2e
=151	=151	=151	=151
3%2F	3%2F	3%4c	3%2f
3%2r	3%2r	.	3%2r
3%2r	3%2r	3%2d	3%2r
=152	=152	=152	=152
3%4C	3%4c	3%4e	3%4g
3%2D	3%2A	3%2f	3%2f
=153	=153	=153	=153
3%4G	3%4B-y	3%2d	3%4g
.	.	3%2e	.
3%2F	3%2c	[3%2f	3%2a
=154	=154	=154	=154
3%4D	3%4d	3%2f]	3%4f
.	.	3%2d	.
3%2G	3%2B-y	3%2e	3%2g
=155	=155	=155	=155
3%4F	3%4c	[0f	3%4a
3%2BB-y	3%2d	.	3%2b-y
=156	=156	=156	=156
3%2F	3%2.c	3%2f]	3%2a
3%2C	.	3%2e	3%2.g
.	3B-y	.	.
3%2D	3%2A	[3%2d	.
.	.	.	3f
=157	=157	=157	=157
3%2BB-y	3%2B-y	3%2d]	3%4f
3%4C	3%4G	3%4c	.
.	.	.	3%2e
=158	=158	=158	=158
0FF	0F	1A	1f
.	.	2r	1r
.	.	[2f	.
=159	=159	=159	=159
0r	0r	2f]	1cc
.	.	2e	.
.	.	2d	2b-y
.	.	[2c	2a
=160	=160	=160	=160
0r	1r	4c]	1.g
.	.	4d	.
.	.	4e	.
.	.	4f	.
.	1c	2e	.
.	.	4d	4f
.	.	4c	4e
=161	=161	=161	=161
0r	2B-y	2d	2f
.	2A	1c	2c
.	1G	.	1d
.	.	2Bni	.
=162	=162	=162	=162
1F	1A	2c	1c
.	.	1c	.
2E	2G	.	1r
2D	2F	2B-y	.
=163	=163	=163	=163
1.C	1.E	2.A	1r
.	.	8GL	.
.	.	8FJ	.
.	.	2A	1cc
2AA	4D	[2G	.
.	4C	.	.
=164	=164	=164	=164
2BB-y	2D	2G]	2b-y
2FF	1C	1F	2a
1GG	.	.	1g
.	2BB-y	2E	.
=165	=165	=165	=165
1FF	2.C	1F	1a
.	4D	.	.
2C	2E	1r	2g
2D	2F	.	2f
=166	=166	=166	=166
2.C	2G	2r	2.e
.	2A	2.c	.
4D	.	.	4f
2E	2G	.	2g
.	.	4B-y	.
[2F	[2c	4A	[2a
.	.	4G	.
=167	=167	=167	=167
4F]	2c]	2F	4a]
4E	.	.	4g
2F	2A	2.c	1f
1C	1G	.	.
.	.	4B-y	.
.	.	2G	2e
=168	=168	=168	=168
0FF	0F	1A	1f
.	.	2r	1r
.	.	[2f	.
=169	=169	=169	=169
0r	0r	2f]	1cc
.	.	2e	.
.	.	2d	2b-y
.	.	[2c	2a
=170	=170	=170	=170
0r	1r	4c]	1.g
.	.	4d	.
.	.	4e	.
.	.	4f	.
.	1c	2e	.
.	.	4d	4f
.	.	4c	4e
=171	=171	=171	=171
0r	2B-y	2d	2f
.	2A	1c	2c
.	1G	.	1d
.	.	2Bni	.
=172	=172	=172	=172
1F	1A	2c	1c
.	.	1c	.
2E	2G	.	1r
2D	2F	2B-y	.
=173	=173	=173	=173
1.C	1.E	2.A	1r
.	.	8GL	.
.	.	8FJ	.
.	.	2G	1cc
2AA	4D	2A	.
.	4C	.	.
=174	=174	=174	=174
2BB-y	2D	2G	2b-y
2FF	1C	1F	2a
1GG	.	.	1g
.	2BB-y	2E	.
=175	=175	=175	=175
1FF	2.C	1F	1a
.	4D	.	.
2C	2E	1r	2g
2D	2F	.	2f
=176	=176	=176	=176
2.C	2G	2r	2.e
.	2A	2.c	.
4D	.	.	4f
2E	2G	.	2g
.	.	4B-y	.
[2F	[2c	4A	[2a
.	.	4G	.
=177	=177	=177	=177
4F]	2c]	2F	4a]
4E	.	.	4g
2F	2A	2.c	1f
1C	1G	.	.
.	.	4B-y	.
.	.	2G	2e
=178	=178	=178	=178
[0FFl	[0Fl	2.A	[0fl
.	.	4B-y	.
.	.	1c	.
=179	=179	=179	=179
00FF]	00F]	00cl	00f]
==	==	==	==
*-	*-	*-	*-
!!!system-decoration: [*]
!!!RDF**kern: i = editorial accidental
!!!RDF**kern: l = terminal long
!!!ENC: Benjamin Ory
!!!END: 2022/3/30
!!!EED: Benjamin Ory
!!!EEV: 2022/03/30
!!!YEC: Copyright 2022 Benjamin Ory, All Rights Reserved
!!!ONB: Translated from MusicXML on 2022/03/30
